X:29
T:Schottis fr{\aa}n Blyberg
R:schottis
A:Dalarna
Z:id:hn-schottis-29
M:C|
K:D
DFAF DFAF|GABA G2G2|Acec Acec|defe d2d2|
DFAF DFAF|GABA G2G2|Acec Acec|d2d2 d2A2:|
|:A2(3fff fedc|B2(3ggg gfed|c2a2 a2^ga|bafd A2A2|
A2(3fff fedc|B2(3ggg gfed|c2aa agec|1 d2d2 d2A2:|2 d2d2 d2z2||
<end>
<start>
